src/main/resources/icons/BVCoreIcons/resources/icons/constraintMappings_dark.svg

<svg xmlns="http://www.w3.org/2000/svg" width="16" height="16" viewBox="0 0 16 16">
  <g fill="none" fill-rule="evenodd">
    <path fill="#935E2D" fill-opacity=".7" d="M10.6773611,9.61687649 L3.37322101,2.31344463 C6.17522101,0.0574446345 9.76722101,0.862444634 12.452221,3.54844463 C14.5058346,5.6020582 15.4600171,8.18723909 14.7844212,10.5429569 L14.5798642,10.4133643 L13.296,9.6 L10.704,9.6 L10.6773611,9.61687649 Z M6.6,14.5207151 C5.52046938,14.0910249 4.47920575,13.3854294 3.54722101,12.4534446 C0.863221014,9.76944463 0.0572210138,6.17744463 2.31322101,3.37544463 L9.37789891,10.4401225 L6.6,12.2 L6.6,14.5207151 Z"/>
    <polygon fill="#9AA7B0" points="0 3 0 2 3 0 3 1 .8 2.5 3 4 3 5" transform="translate(8 11)"/>
    <polygon fill="#9AA7B0" points="0 4 2.2 2.5 0 1 0 0 3 2 3 3 0 5" transform="translate(13 11)"/>
  </g>
</svg>

<svg xmlns="http://www.w3.org/2000/svg" width="16" height="16" viewBox="0 0 16 16"><rect id="frame" width="16" height="16" fill="none"/><g fill="none" fill-rule="evenodd"><path fill="#935E2D" fill-opacity=".7" d="M10.677 9.617L3.373 2.313C6.175.057 9.767.863 12.453 3.548c2.053 2.054 3.007 4.64 2.331 6.995l-.204-.13-1.284-.813h-2.592l-.027.017zM6.6 14.52c-1.08-.43-2.12-1.136-3.053-2.068C.863 9.77.057 6.177 2.313 3.375l7.065 7.065L6.6 12.2v2.32z"/><path fill="#9AA7B0" d="M8 14v-1l3-2v1l-2.2 1.5L11 15v1z"/><path fill="#9AA7B0" d="M13 15l2.2-1.5L13 12v-1l3 2v1l-3 2z"/></g></svg>
